;FLAVOR:RepRap
;TIME:5538
;Filament used: 9.29715m
;Layer height: 0.3
;Generated with Cura_SteamEngine 2.5.0
M190 S50
M104 S210
M109 S210
G21 ;metric values
G90 ;absolute positioning
M82 ;set extruder to absolute mode
M107 ;start with the fan off
G28 X0 Y0 ;move X/Y to min endstops
G28 Z0 ;move Z to min endstops
G1 Z15.0 F9000 ;move the platform down 15mm
G92 E0 ;zero the extruded length
G1 F200 E3 ;extrude 3mm of feed stock
G92 E0 ;zero the extruded length again
G1 F9000
;Put printing message on LCD screen
M117 Printing...
;LAYER_COUNT:377
;LAYER:0
M107
G0 F3600 X81.929 Y80.969 Z0.3
G0 X81.589 Y81.383
;TYPE:SKIRT
G1 F1200 X81.929 Y80.969 E0.02673
G1 X82.328 Y80.61 E0.0535
G1 X82.775 Y80.314 E0.08025
G1 X83.261 Y80.088 E0.10699
G1 X83.519 Y80.001 E0.12058
G1 X85.225 Y79.501 E0.20927
G1 X85.75 Y79.389 E0.23605
G1 X86.246 Y79.356 E0.26085
G1 X87.125 Y79.358 E0.3047
G1 X87.38 Y79.368 E0.31744
G1 X93.441 Y79.812 E0.62063
G1 X102.412 Y79.899 E1.06822
G1 X107.912 Y79.744 E1.34272
G1 X112.631 Y79.366 E1.57891
G1 X112.931 Y79.355 E1.59389
G1 X113.783 Y79.358 E1.63639
G1 X114.317 Y79.4 E1.66312
G1 X114.78 Y79.503 E1.68678
G1 X116.463 Y79.995 E1.77426
G1 X116.965 Y80.183 E1.801
G1 X117.434 Y80.444 E1.82778
G1 X117.858 Y80.772 E1.85452
G1 X118.382 Y81.357 E1.89371
G1 X119.199 Y82.5 E1.9638
G1 X119.589 Y83.199 E2.00373
G1 X119.71 Y83.487 E2.01932
G1 X119.88 Y83.995 E2.04605
G1 X119.954 Y84.363 E2.06477
G1 X120.056 Y85.065 E2.10016
G1 X120.093 Y85.551 E2.12448
G1 X120.139 Y90.84 E2.38836
G1 X120.452 Y96.35 E2.6637
G1 X120.641 Y98.606 E2.77664
G1 X120.654 Y98.912 E2.79192
G1 X120.641 Y107.468 E3.21879
G1 X120.63 Y107.742 E3.23247
G1 X120.075 Y114.871 E3.58921
G1 X119.967 Y115.509 E3.62149
G1 X119.754 Y116.318 E3.66323
G1 X119.58 Y116.825 E3.68997
G1 X119.331 Y117.3 E3.71673
G1 X119.132 Y117.588 E3.73419
G1 X118.699 Y118.154 E3.76975
G1 X118.343 Y118.555 E3.7965
G1 X117.93 Y118.898 E3.82328
G1 X117.653 Y119.077 E3.83974
G1 X116.917 Y119.506 E3.88224
G1 X116.435 Y119.741 E3.90899
G1 X115.923 Y119.902 E3.93577
G1 X115.437 Y119.981 E3.96033
G1 X114.328 Y120.084 E4.0159
G1 X113.991 Y120.099 E4.03273
G1 X85.194 Y120.066 E5.46942
G1 X84.659 Y120.025 E5.49619
G1 X84.061 Y119.882 E5.52686
G1 X83.427 Y119.671 E5.5602
G1 X82.932 Y119.464 E5.58697
G1 X82.436 Y119.159 E5.61602
G1 X81.987 Y118.83 E5.64379
G1 X81.579 Y118.482 E5.67054
G1 X81.221 Y118.068 E5.69785
G1 X80.831 Y117.541 E5.73056
G1 X80.545 Y117.087 E5.75733
G1 X80.394 Y116.765 E5.77507
G1 X80.271 Y116.465 E5.79124
G1 X80.105 Y115.955 E5.818
G1 X80.033 Y115.573 E5.8374
G1 X79.936 Y114.842 E5.87419
G1 X79.905 Y114.367 E5.89793
G1 X79.914 Y85.41 E7.3426
G1 X79.954 Y84.875 E7.36937
G1 X80.032 Y84.498 E7.38858
G1 X80.245 Y83.686 E7.43046
G1 X80.419 Y83.178 E7.45725
G1 X80.784 Y82.526 E7.49453
G1 X81.589 Y81.383 E7.56428
G0 F3600 X81.916 Y81.613
G1 F1200 X82.239 Y81.224 E7.5895
G1 X82.619 Y80.891 E7.61471
G1 X83.047 Y80.622 E7.63993
G1 X83.632 Y80.385 E7.67142
G1 X85.338 Y79.885 E7.76011
G1 X85.833 Y79.782 E7.78534
G1 X86.245 Y79.756 E7.80593
G1 X87.124 Y79.758 E7.84978
G1 X87.351 Y79.767 E7.86112
G1 X93.423 Y80.212 E8.16486
G1 X102.42 Y80.299 E8.61375
G1 X107.936 Y80.143 E8.88905
G1 X112.663 Y79.765 E9.12564
G1 X112.929 Y79.755 E9.13892
G1 X113.781 Y79.758 E9.18142
G1 X114.285 Y79.8 E9.20665
G1 X114.668 Y79.887 E9.22625
G1 X116.351 Y80.379 E9.31373
G1 X116.823 Y80.558 E9.33891
G1 X117.262 Y80.81 E9.36417
G1 X117.655 Y81.128 E9.38939
G1 X118.056 Y81.589 E9.41987
G1 X118.873 Y82.732 E9.48997
G1 X119.22 Y83.354 E9.5255
G1 X119.341 Y83.642 E9.54109
G1 X119.5 Y84.122 E9.56631
G1 X119.558 Y84.421 E9.58151
G1 X119.66 Y85.123 E9.6169
G1 X119.693 Y85.555 E9.63851
G1 X119.739 Y90.845 E9.90244
G1 X120.052 Y96.367 E10.17838
G1 X120.243 Y98.639 E10.29213
G1 X120.254 Y98.912 E10.30576
G1 X120.241 Y107.468 E10.73262
G1 X120.231 Y107.711 E10.74475
G1 X119.676 Y114.84 E11.1015
G1 X119.581 Y115.407 E11.13018
G1 X119.368 Y116.216 E11.17192
G1 X119.201 Y116.693 E11.19713
G1 X118.961 Y117.138 E11.22235
G1 X118.815 Y117.345 E11.23499
G1 X118.382 Y117.911 E11.27055
G1 X118.044 Y118.287 E11.29577
G1 X117.451 Y118.732 E11.33276
G1 X116.715 Y119.161 E11.37526
G1 X116.26 Y119.38 E11.40045
G1 X115.776 Y119.525 E11.42566
G1 X115.4 Y119.582 E11.44463
G1 X114.291 Y119.685 E11.5002
G1 X113.991 Y119.699 E11.51518
G1 X85.194 Y119.666 E12.95187
G1 X84.69 Y119.625 E12.9771
G1 X84.188 Y119.502 E13.00288
G1 X83.554 Y119.291 E13.03622
G1 X83.088 Y119.094 E13.06146
G1 X82.673 Y118.836 E13.08584
G1 X82.224 Y118.507 E13.11361
G1 X81.841 Y118.177 E13.13883
G1 X81.543 Y117.83 E13.16165
G1 X81.153 Y117.303 E13.19436
G1 X80.885 Y116.874 E13.2196
G1 X80.764 Y116.613 E13.23395
G1 X80.641 Y116.313 E13.25013
G1 X80.487 Y115.831 E13.27537
G1 X80.43 Y115.52 E13.29115
G1 X80.333 Y114.789 E13.32794
G1 X80.305 Y114.367 E13.34904
G1 X80.314 Y85.41 E14.79371
G1 X80.354 Y84.906 E14.81893
G1 X80.419 Y84.599 E14.83459
G1 X80.632 Y83.787 E14.87647
G1 X80.798 Y83.31 E14.90167
G1 X81.111 Y82.756 E14.93341
G1 X81.916 Y81.613 E15.00316
G1 F1500 E8.50316
G0 F3600 X83.692 Y83.55
G0 X84.526 Y84.526
G0 X84.582 Y84.582
G0 X84.512 Y84.512
;TYPE:WALL-INNER
G1 F1500 E15.00316
G1 F1200 X84.68 Y84.367 E15.01423
G1 X84.863 Y84.256 E15.02491
G1 X85.068 Y84.171 E15.03598
G1 X85.285 Y84.119 E15.04711
G1 X85.522 Y84.1 E15.05897
G1 X114.478 Y84.1 E16.5036
G1 X114.715 Y84.119 E16.51546
G1 X114.932 Y84.171 E16.52659
G1 X115.137 Y84.256 E16.53766
G1 X115.32 Y84.367 E16.54834
G1 X115.488 Y84.512 E16.55941
G1 X115.633 Y84.68 E16.57048
G1 X115.744 Y84.863 E16.58116
G1 X115.829 Y85.068 E16.59223
G1 X115.881 Y85.285 E16.60337
G1 X115.9 Y85.519 E16.61508
G1 X115.9 Y114.48 E18.05995
G1 X115.881 Y114.715 E18.07171
G1 X115.829 Y114.932 E18.08284
G1 X115.744 Y115.137 E18.09392
G1 X115.633 Y115.32 E18.10459
G1 X115.488 Y115.488 E18.11567
G1 X115.32 Y115.633 E18.12674
G1 X115.137 Y115.744 E18.13742
G1 X114.932 Y115.829 E18.14849
G1 X114.715 Y115.881 E18.15962
G1 X114.48 Y115.899 E18.17138
G1 X85.519 Y115.899 E19.61625
G1 X85.285 Y115.881 E19.62796
G1 X85.068 Y115.829 E19.63909
G1 X84.863 Y115.744 E19.65016
G1 X84.68 Y115.633 E19.66084
G1 X84.512 Y115.488 E19.67191
G1 X84.367 Y115.32 E19.68298
G1 X84.256 Y115.137 E19.69366
G1 X84.171 Y114.932 E19.70473
G1 X84.119 Y114.715 E19.71587
G1 X84.1 Y114.48 E19.72763
G1 X84.1 Y85.519 E21.1725
G1 X84.119 Y85.285 E21.18421
G1 X84.171 Y85.068 E21.19534
G1 X84.256 Y84.863 E21.20642
G1 X84.367 Y84.68 E21.21709
G1 X84.512 Y84.512 E21.22817
G0 F3600 X84.228 Y84.228
;TYPE:WALL-OUTER
G1 F1200 X84.442 Y84.045 E21.24221
G1 X84.683 Y83.898 E21.2563
G1 X84.944 Y83.789 E21.27041
G1 X85.224 Y83.722 E21.28477
G1 X85.504 Y83.7 E21.29878
G1 X114.496 Y83.7 E22.7452
G1 X114.776 Y83.722 E22.75921
G1 X115.056 Y83.789 E22.77358
G1 X115.317 Y83.898 E22.78769
G1 X115.558 Y84.045 E22.80177
G1 X115.772 Y84.228 E22.81582
G1 X115.955 Y84.442 E22.82987
G1 X116.102 Y84.683 E22.84395
G1 X116.211 Y84.944 E22.85806
G1 X116.278 Y85.224 E22.87243
G1 X116.3 Y85.5 E22.88624
G1 X116.3 Y114.499 E24.33301
G1 X116.278 Y114.776 E24.34687
G1 X116.211 Y115.056 E24.36123
G1 X116.102 Y115.317 E24.37534
G1 X115.955 Y115.558 E24.38943
G1 X115.772 Y115.772 E24.40348
G1 X115.558 Y115.955 E24.41752
G1 X115.317 Y116.102 E24.43161
G1 X115.056 Y116.211 E24.44572
G1 X114.776 Y116.278 E24.46008
G1 X114.497 Y116.299 E24.47404
G1 X85.502 Y116.299 E25.92061
G1 X85.224 Y116.278 E25.93452
G1 X84.944 Y116.211 E25.94888
G1 X84.683 Y116.102 E25.96299
G1 X84.442 Y115.955 E25.97707
G1 X84.228 Y115.772 E25.99112
G1 X84.045 Y115.558 E26.00517
G1 X83.898 Y115.317 E26.01925
G1 X83.789 Y115.056 E26.03336
G1 X83.722 Y114.776 E26.04773
G1 X83.7 Y114.499 E26.06159
G1 X83.7 Y85.5 E27.50836
G1 X83.722 Y85.224 E27.52217
G1 X83.789 Y84.944 E27.53653
G1 X83.898 Y84.683 E27.55065
G1 X84.045 Y84.442 E27.56473
G1 X84.228 Y84.228 E27.57878
G0 F3600 X84.38 Y84.098
G0 X84.639 Y84.639
;TYPE:SKIN
G1 F1200 X115.359 Y115.359 E29.74624
G1 X115.429 Y115.429
G0 F3600 X115.027 Y115.592
G1 F1200 X84.405 Y84.971 E31.90675
G1 X84.335 Y84.901
G0 F3600 X84.287 Y85.419
G1 F1200 X114.578 Y115.71 E34.04395
G1 X114.648 Y115.78
G0 F3600 X114.02 Y115.718
G1 F1200 X84.28 Y85.977 E36.1423
G1 X84.21 Y85.907
G0 F3600 X84.28 Y86.542
G1 F1200 X113.455 Y115.718 E38.20079
G1 X113.525 Y115.788
G0 F3600 X112.889 Y115.718
G1 F1200 X84.28 Y87.108 E40.21934
G1 X84.21 Y87.038
G0 F3600 X84.28 Y87.674
G1 F1200 X112.323 Y115.718 E42.19796
G1 X112.393 Y115.788
G0 F3600 X111.758 Y115.718
G1 F1200 X84.28 Y88.239 E44.13672
G1 X84.21 Y88.169
G0 F3600 X84.28 Y88.805
G1 F1200 X111.192 Y115.718 E46.03554
G1 X111.262 Y115.788
G0 F3600 X110.626 Y115.718
G1 F1200 X84.28 Y89.371 E47.89443
G1 X84.21 Y89.301
G0 F3600 X84.28 Y89.936
G1 F1200 X110.061 Y115.718 E49.71345
G1 X110.131 Y115.788
G0 F3600 X109.495 Y115.718
G1 F1200 X84.28 Y90.502 E51.49254
G1 X84.21 Y90.432
G0 F3600 X84.28 Y91.068
G1 F1200 X108.929 Y115.718 E53.2317
G1 X108.999 Y115.788
G0 F3600 X108.364 Y115.718
G1 F1200 X84.28 Y91.633 E54.93099
G1 X84.21 Y91.563
G0 F3600 X84.28 Y92.199
G1 F1200 X107.798 Y115.718 E56.59035
G1 X107.868 Y115.788
G0 F3600 X107.232 Y115.718
G1 F1200 X84.28 Y92.765 E58.20977
G1 X84.21 Y92.695
G0 F3600 X84.28 Y93.331
G1 F1200 X106.667 Y115.718 E59.78929
G1 X106.737 Y115.788
G0 F3600 X106.101 Y115.718
G1 F1200 X84.28 Y93.896 E61.32892
G1 X84.21 Y93.826
G0 F3600 X84.28 Y94.462
G1 F1200 X105.535 Y115.718 E62.82861
G1 X105.605 Y115.788
G0 F3600 X104.97 Y115.718
G1 F1200 X84.28 Y95.028 E64.2884
G1 X84.21 Y94.958
G0 F3600 X84.28 Y95.593
G1 F1200 X104.404 Y115.718 E65.70829
G1 X104.474 Y115.788
G0 F3600 X103.838 Y115.718
G1 F1200 X84.28 Y96.159 E67.08825
G1 X84.21 Y96.089
G0 F3600 X84.28 Y96.725
G1 F1200 X103.272 Y115.718 E68.42827
G1 X103.342 Y115.788
G0 F3600 X102.707 Y115.718
G1 F1200 X84.28 Y97.29 E69.72843
G1 X84.21 Y97.22
G0 F3600 X84.28 Y97.856
G1 F1200 X102.141 Y115.718 E70.98866
G1 X102.211 Y115.788
G0 F3600 X101.575 Y115.718
G1 F1200 X84.28 Y98.422 E72.20895
G1 X84.21 Y98.352
G0 F3600 X84.28 Y98.987
G1 F1200 X101.01 Y115.718 E73.38938
G1 X101.08 Y115.788
G0 F3600 X100.444 Y115.718
G1 F1200 X84.28 Y99.553 E74.52987
G1 X84.21 Y99.483
G0 F3600 X84.28 Y100.119
G1 F1200 X99.878 Y115.718 E75.63043
G1 X99.948 Y115.788
G0 F3600 X99.313 Y115.718
G1 F1200 X84.28 Y100.684 E76.69112
G1 X84.21 Y100.614
G0 F3600 X84.28 Y101.25
G1 F1200 X98.747 Y115.718 E77.71188
G1 X98.817 Y115.788
G0 F3600 X98.181 Y115.718
G1 F1200 X84.28 Y101.816 E78.69271
G1 X84.21 Y101.746
G0 F3600 X84.28 Y102.381
G1 F1200 X97.616 Y115.718 E79.63367
G1 X97.686 Y115.788
G0 F3600 X97.05 Y115.718
G1 F1200 X84.28 Y102.947 E80.5347
G1 X84.21 Y102.877
G0 F3600 X84.28 Y103.513
G1 F1200 X96.484 Y115.718 E81.39579
G1 X96.554 Y115.788
G0 F3600 X95.919 Y115.718
G1 F1200 X84.28 Y104.079 E82.21699
G1 X84.21 Y104.009
G0 F3600 X84.28 Y104.644
G1 F1200 X95.353 Y115.718 E82.99828
G1 X95.423 Y115.788
G0 F3600 X94.787 Y115.718
G1 F1200 X84.28 Y105.21 E83.73964
G1 X84.21 Y105.14
G0 F3600 X84.28 Y105.776
G1 F1200 X94.221 Y115.718 E84.44107
G1 X94.291 Y115.788
G0 F3600 X93.656 Y115.718
G1 F1200 X84.28 Y106.341 E85.10263
G1 X84.21 Y106.271
G0 F3600 X84.28 Y106.907
G1 F1200 X93.09 Y115.718 E85.72426
G1 X93.16 Y115.788
G0 F3600 X92.524 Y115.718
G1 F1200 X84.28 Y107.473 E86.30595
G1 X84.21 Y107.403
G0 F3600 X84.28 Y108.038
G1 F1200 X91.959 Y115.718 E86.84778
G1 X92.029 Y115.788
G0 F3600 X91.393 Y115.718
G1 F1200 X84.28 Y108.604 E87.34968
G1 X84.21 Y108.534
G0 F3600 X84.28 Y109.17
G1 F1200 X90.827 Y115.718 E87.81164
G1 X90.897 Y115.788
G0 F3600 X90.262 Y115.718
G1 F1200 X84.28 Y109.735 E88.23374
G1 X84.21 Y109.665
G0 F3600 X84.28 Y110.301
G1 F1200 X89.696 Y115.718 E88.6159
G1 X89.766 Y115.788
G0 F3600 X89.13 Y115.718
G1 F1200 X84.28 Y110.867 E88.95813
G1 X84.21 Y110.797
G0 F3600 X84.28 Y111.432
G1 F1200 X88.565 Y115.718 E89.2605
G1 X88.635 Y115.788
G0 F3600 X87.999 Y115.718
G1 F1200 X84.28 Y111.998 E89.52293
G1 X84.21 Y111.928
G0 F3600 X84.28 Y112.564
G1 F1200 X87.433 Y115.718 E89.74542
G1 X87.503 Y115.788
G0 F3600 X86.868 Y115.718
G1 F1200 X84.28 Y113.13 E89.92802
G1 X84.21 Y113.06
G0 F3600 X84.28 Y113.695
G1 F1200 X86.302 Y115.718 E90.07072
G1 X86.372 Y115.788
G0 F3600 X85.736 Y115.718
G1 F1200 X84.28 Y114.261 E90.17348
G1 X84.21 Y114.191
G0 F3600 X84.354 Y114.901
G1 F1200 X85.098 Y115.645 E90.22598
G1 X85.168 Y115.715
G0 F3600 X115.593 Y115.027
G1 F1200 X84.972 Y84.406 E92.38645
G1 X84.902 Y84.336
G0 F3600 X85.419 Y84.288
G1 F1200 X115.711 Y114.58 E94.52372
G1 X115.781 Y114.65
G0 F3600 X115.719 Y114.022
G1 F1200 X85.977 Y84.28 E96.62218
G1 X85.907 Y84.21
G0 F3600 X86.542 Y84.28
G1 F1200 X115.719 Y113.456 E98.68074
G1 X115.789 Y113.526
G0 F3600 X115.719 Y112.891
G1 F1200 X87.108 Y84.28 E100.6994
G1 X87.038 Y84.21
G0 F3600 X87.674 Y84.28
G1 F1200 X115.719 Y112.325 E102.67812
G1 X115.789 Y112.395
G0 F3600 X115.719 Y111.759
G1 F1200 X88.239 Y84.28 E104.61695
G1 X88.169 Y84.21
G0 F3600 X88.805 Y84.28
G1 F1200 X115.719 Y111.193 E106.51584
G1 X115.789 Y111.263
G0 F3600 X115.719 Y110.628
G1 F1200 X89.371 Y84.28 E108.37484
G1 X89.301 Y84.21
G0 F3600 X89.936 Y84.28
G1 F1200 X115.719 Y110.062 E110.19393
G1 X115.789 Y110.132
G0 F3600 X115.719 Y109.496
G1 F1200 X90.502 Y84.28 E111.97309
G1 X90.432 Y84.21
G0 F3600 X91.068 Y84.28
G1 F1200 X115.719 Y108.931 E113.71235
G1 X115.789 Y109.001
G0 F3600 X115.719 Y108.365
G1 F1200 X91.633 Y84.28 E115.41171
G1 X91.563 Y84.21
G0 F3600 X92.199 Y84.28
G1 F1200 X115.719 Y107.799 E117.07114
G1 X115.789 Y107.869
G0 F3600 X115.719 Y107.234
G1 F1200 X92.765 Y84.28 E118.69067
G1 X92.695 Y84.21
G0 F3600 X93.331 Y84.28
G1 F1200 X115.719 Y106.668 E120.27027
G1 X115.789 Y106.738
G0 F3600 X115.719 Y106.102
G1 F1200 X93.896 Y84.28 E121.80996
G1 X93.826 Y84.21
G0 F3600 X94.462 Y84.28
G1 F1200 X115.719 Y105.537 E123.30976
G1 X115.789 Y105.607
G0 F3600 X115.719 Y104.971
G1 F1200 X95.028 Y84.28 E124.76962
G1 X94.958 Y84.21
G0 F3600 X95.593 Y84.28
G1 F1200 X115.719 Y104.405 E126.18958
G1 X115.789 Y104.475
G0 F3600 X115.719 Y103.84
G1 F1200 X96.159 Y84.28 E127.56965
G1 X96.089 Y84.21
G0 F3600 X96.725 Y84.28
G1 F1200 X115.719 Y103.274 E128.90977
G1 X115.789 Y103.344
G0 F3600 X115.719 Y102.708
G1 F1200 X97.29 Y84.28 E130.21
G1 X97.22 Y84.21
G0 F3600 X97.856 Y84.28
G1 F1200 X115.719 Y102.142 E131.4703
G1 X115.789 Y102.212
G0 F3600 X115.719 Y101.577
G1 F1200 X98.422 Y84.28 E132.6907
G1 X98.352 Y84.21
G0 F3600 X98.987 Y84.28
G1 F1200 X115.719 Y101.011 E133.87119
G1 X115.789 Y101.081
G0 F3600 X115.719 Y100.445
G1 F1200 X99.553 Y84.28 E135.01176
G1 X99.483 Y84.21
G0 F3600 X100.119 Y84.28
G1 F1200 X115.719 Y99.88 E136.11242
G1 X115.789 Y99.95
G0 F3600 X115.719 Y99.314
G1 F1200 X100.684 Y84.28 E137.17319
G1 X100.614 Y84.21
G0 F3600 X101.25 Y84.28
G1 F1200 X115.719 Y98.748 E138.19402
G1 X115.789 Y98.818
G0 F3600 X115.719 Y98.183
G1 F1200 X101.816 Y84.28 E139.17495
G1 X101.746 Y84.21
G0 F3600 X102.381 Y84.28
G1 F1200 X115.719 Y97.617 E140.11598
G1 X115.789 Y97.687
G0 F3600 X115.719 Y97.051
G1 F1200 X102.947 Y84.28 E141.01708
G1 X102.877 Y84.21
G0 F3600 X103.513 Y84.28
G1 F1200 X115.719 Y96.486 E141.87828
G1 X115.789 Y96.556
G0 F3600 X115.719 Y95.92
G1 F1200 X104.079 Y84.28 E142.69955
G1 X104.009 Y84.21
G0 F3600 X104.644 Y84.28
G1 F1200 X115.719 Y95.354 E143.48091
G1 X115.789 Y95.424
G0 F3600 X115.719 Y94.789
G1 F1200 X105.21 Y84.28 E144.22238
G1 X105.14 Y84.21
G0 F3600 X105.776 Y84.28
G1 F1200 X115.719 Y94.223 E144.92391
G1 X115.789 Y94.293
G0 F3600 X115.719 Y93.657
G1 F1200 X106.341 Y84.28 E145.58554
G1 X106.271 Y84.21
G0 F3600 X106.907 Y84.28
G1 F1200 X115.719 Y93.092 E146.20728
G1 X115.789 Y93.162
G0 F3600 X115.719 Y92.526
G1 F1200 X107.473 Y84.28 E146.78908
G1 X107.403 Y84.21
G0 F3600 X108.038 Y84.28
G1 F1200 X115.719 Y91.96 E147.33098
G1 X115.789 Y92.03
G0 F3600 X115.719 Y91.394
G1 F1200 X108.604 Y84.28 E147.83294
G1 X108.534 Y84.21
G0 F3600 X109.17 Y84.28
G1 F1200 X115.719 Y90.829 E148.29501
G1 X115.789 Y90.899
G0 F3600 X115.719 Y90.263
G1 F1200 X109.735 Y84.28 E148.71718
G1 X109.665 Y84.21
G0 F3600 X110.301 Y84.28
G1 F1200 X115.719 Y89.697 E149.09941
G1 X115.789 Y89.767
G0 F3600 X115.719 Y89.132
